public/assets/github.svg

<svg width="46" height="46" viewBox="0 0 46 46" fill="none" xmlns="http://www.w3.org/2000/svg">
<path d="M15.3859 36.4801C15.3859 36.6637 15.1726 36.8105 14.9036 36.8105C14.5976 36.8381 14.3843 36.6912 14.3843 36.4801C14.3843 36.2965 14.5976 36.1496 14.8665 36.1496C15.1448 36.1221 15.3859 36.2689 15.3859 36.4801ZM12.5016 36.067C12.4367 36.2506 12.6222 36.4617 12.9004 36.5168C13.1415 36.6086 13.4198 36.5168 13.4754 36.3332C13.531 36.1496 13.3548 35.9385 13.0766 35.8559C12.8355 35.7916 12.5665 35.8834 12.5016 36.067ZM16.6008 35.9109C16.3319 35.9752 16.1464 36.1496 16.1742 36.3607C16.202 36.5443 16.4431 36.6637 16.7214 36.5994C16.9903 36.5352 17.1758 36.3607 17.148 36.1772C17.1202 36.0027 16.8698 35.8834 16.6008 35.9109ZM22.7032 0.734375C9.83992 0.734375 0 10.4006 0 23.1328C0 33.3131 6.47339 42.0246 15.7198 45.0906C16.9069 45.3018 17.3242 44.5766 17.3242 43.9799C17.3242 43.4107 17.2964 40.2713 17.2964 38.3436C17.2964 38.3436 10.8044 39.7205 9.44113 35.608C9.44113 35.608 8.38387 32.9367 6.8629 32.2482C6.8629 32.2482 4.73911 30.807 7.01129 30.8346C7.01129 30.8346 9.32056 31.0182 10.5911 33.2029C12.6222 36.7463 16.0258 35.7273 17.352 35.1215C17.5653 33.6527 18.1681 32.6338 18.8359 32.0279C13.6516 31.4588 8.42097 30.7152 8.42097 21.8844C8.42097 19.36 9.12581 18.0932 10.6097 16.4775C10.3685 15.8809 9.58024 13.4207 10.8508 10.2445C12.7891 9.64785 17.25 12.723 17.25 12.723C19.1048 12.209 21.0988 11.9428 23.0742 11.9428C25.0496 11.9428 27.0435 12.209 28.8984 12.723C28.8984 12.723 33.3593 9.63867 35.2976 10.2445C36.5681 13.4299 35.7798 15.8809 35.5387 16.4775C37.0226 18.1023 37.9315 19.3691 37.9315 21.8844C37.9315 30.7428 32.469 31.4496 27.2847 32.0279C28.1379 32.7531 28.8613 34.1301 28.8613 36.2873C28.8613 39.3809 28.8335 43.2088 28.8335 43.9615C28.8335 44.5582 29.2601 45.2834 30.4379 45.0723C39.7121 42.0246 46 33.3131 46 23.1328C46 10.4006 35.5665 0.734375 22.7032 0.734375ZM9.01452 32.3951C8.89395 32.4869 8.92177 32.698 9.07944 32.8725C9.22782 33.0193 9.44113 33.0836 9.56169 32.9643C9.68226 32.8725 9.65444 32.6613 9.49677 32.4869C9.34839 32.34 9.13508 32.2758 9.01452 32.3951ZM8.0129 31.6516C7.94798 31.7709 8.04073 31.9178 8.22621 32.0096C8.3746 32.1014 8.56008 32.0738 8.625 31.9453C8.68992 31.826 8.59718 31.6791 8.41169 31.5873C8.22621 31.5322 8.07782 31.5598 8.0129 31.6516ZM11.0177 34.9195C10.8694 35.0389 10.925 35.3143 11.1383 35.4887C11.3516 35.6998 11.6206 35.7273 11.7411 35.5805C11.8617 35.4611 11.806 35.1857 11.6206 35.0113C11.4165 34.8002 11.1383 34.7727 11.0177 34.9195ZM9.96048 33.5701C9.8121 33.6619 9.8121 33.9006 9.96048 34.1117C10.1089 34.3229 10.3593 34.4146 10.4798 34.3228C10.6282 34.2035 10.6282 33.9648 10.4798 33.7537C10.35 33.5426 10.1089 33.4508 9.96048 33.5701Z" fill="black"/>
</svg>

<svg width="46" height="46" fill="none" xmlns="http://www.w3.org/2000/svg"><path d="M15.386 36.48c0 .184-.213.33-.482.33-.306.028-.52-.119-.52-.33 0-.183.214-.33.482-.33.279-.028.52.119.52.33Zm-2.884-.413c-.065.184.12.395.398.45.242.092.52 0 .575-.184.056-.183-.12-.395-.398-.477-.242-.064-.51.027-.575.211Zm4.099-.156c-.27.064-.455.239-.427.45.028.183.27.303.547.238.27-.064.455-.238.427-.422-.028-.174-.278-.294-.547-.266ZM22.703.734C9.84.734 0 10.401 0 23.133c0 10.18 6.473 18.892 15.72 21.958 1.187.21 1.604-.514 1.604-1.111 0-.57-.028-3.709-.028-5.636 0 0-6.492 1.377-7.855-2.736 0 0-1.057-2.671-2.578-3.36 0 0-2.124-1.441.148-1.413 0 0 2.31.183 3.58 2.368 2.031 3.543 5.435 2.524 6.761 1.918.213-1.468.816-2.487 1.484-3.093-5.184-.57-10.415-1.313-10.415-10.144 0-2.524.705-3.79 2.189-5.407-.242-.596-1.03-3.056.24-6.232 1.94-.597 6.4 2.478 6.4 2.478a22.002 22.002 0 0 1 5.824-.78c1.976 0 3.97.266 5.824.78 0 0 4.461-3.084 6.4-2.479 1.27 3.186.482 5.637.24 6.233 1.485 1.625 2.394 2.892 2.394 5.407 0 8.859-5.463 9.566-10.647 10.144.853.725 1.576 2.102 1.576 4.26 0 3.093-.027 6.92-.027 7.674 0 .596.426 1.321 1.604 1.11C39.712 42.025 46 33.313 46 23.132 46 10.402 35.566.735 22.703.735ZM9.015 32.395c-.121.092-.093.303.064.477.149.147.362.212.483.092.12-.091.092-.303-.065-.477-.149-.147-.362-.211-.482-.092Zm-1.002-.743c-.065.119.028.266.213.358.149.091.334.064.399-.065.065-.119-.028-.266-.213-.358-.186-.055-.334-.027-.4.065Zm3.005 3.267c-.149.12-.093.395.12.57.214.21.483.238.603.092.12-.12.065-.395-.12-.57-.205-.21-.483-.238-.603-.092ZM9.96 33.57c-.148.092-.148.33 0 .542.149.21.4.303.52.21.148-.119.148-.357 0-.568-.13-.211-.371-.303-.52-.184Z" fill="#000"/></svg>
